assets/images/MCCGroupIcons/MCC-Airlines.svg

<svg xmlns="http://www.w3.org/2000/svg" viewBox="0 0 40 40"><style type="text/css">.st0{fill-rule:evenodd;clip-rule:evenodd}</style><path d="M12.3522 3.26765C12.1752 2.63045 12.6544 2 13.3157 2H17.382C17.7608 2 18.1071 2.214 18.2765 2.55279L25.0001 16H35.0001C36.6569 16 38.0001 17.3431 38.0001 19C38.0001 20.6569 36.6569 22 35.0001 22H25.0001L18.2765 35.4472C18.1071 35.786 17.7608 36 17.382 36H13.3157C12.6544 36 12.1752 35.3695 12.3522 34.7324L15.8889 22H9.66673L8.22798 26.3162C8.09187 26.7246 7.70973 27 7.2793 27H3.38749C2.70493 27 2.22296 26.3313 2.4388 25.6838L4.66673 19L2.4388 12.3162C2.22296 11.6687 2.70493 11 3.38749 11H7.2793C7.70973 11 8.09187 11.2754 8.22798 11.6838L9.66673 16H15.8889L12.3522 3.26765Z" class="st0"/></svg>

<svg xmlns="http://www.w3.org/2000/svg" viewBox="0 0 40 40"><style>.st0{fill-rule:evenodd;clip-rule:evenodd}</style><path d="M12.352 3.268A1 1 0 0 1 13.316 2h4.066a1 1 0 0 1 .894.553L25 16h10a3 3 0 0 1 0 6H25l-6.724 13.447a1 1 0 0 1-.894.553h-4.066a1 1 0 0 1-.964-1.268L15.89 22H9.667l-1.439 4.316a1 1 0 0 1-.949.684H3.387a1 1 0 0 1-.948-1.316L4.667 19l-2.228-6.684A1 1 0 0 1 3.387 11H7.28a1 1 0 0 1 .949.684L9.667 16h6.222z" class="st0"/></svg>
